X: 547
T: Abe's Retreat
R: reel
M: 4/4
K: Adorian
A2cB A2c2|de3 e2 AA|A2 AA B2 BA|GE3 E4|
A2cB A2c2|de3 e2 aa|b2 a2 geed|1 ^cAAG A4:|2 ^cAAG A2ee||
eaaa gfef|g2 f2 e2 ee|a2 a2 b3a|ge3 e2 ee|
eaaa gfef|g2 f2 e2 aa|b2 a2 geed|1 ^cAAG A4:|2 ^cAAG A2ee||

